ui/StatusQ/src/assets/img/icons/communities/roles.svg

<svg fill="none" height="24" viewBox="0 0 24 24" width="24" xmlns="http://www.w3.org/2000/svg"><g clip-rule="evenodd" fill="#4360df" fill-rule="evenodd"><path d="m9.35614 16.8391c0 1.1926-.97154 2.1594-2.17 2.1594s-2.17-.9668-2.17-2.1594.97154-2.1594 2.17-2.1594 2.17.9668 2.17 2.1594zm-1.50807 0c0 .3638-.29635.6587-.66193.6587-.36557 0-.66193-.2949-.66193-.6587s.29636-.6587.66193-.6587c.36558 0 .66193.2949.66193.6587z"/><path d="m17.1478 11.0812c-.0473.1918-.2036.338-.3989.3731l-.9687.1739c-.2191.0393-.3861.2174-.4104.4376l-.1561 1.4119c-.013.1178-.0676.2272-.1541.3086l-.9076.8549c-.1253.118-.1795.2914-.154.4611.0439.2919.0666.5907.0666.8948 0 3.3153-2.7008 6.0029-6.03231 6.0029-3.33154 0-6.03229-2.6876-6.03229-6.0029 0-3.3154 2.70075-6.00296 6.03229-6.00296.69597 0 1.36442.11726 1.98651.33306.1902.066.4036.0262.5473-.1143l8.2481-8.06938c.0941-.09198.2206-.14352.3525-.14352h2.3304c.3193 0 .5576.29229.492.60318l-.8236 3.89744c-.036.17051-.1586.31008-.3236.36842l-.8895.31457c-.1486.05257-.2638.1715-.3111.32124l-.4005 1.26681c-.0506.15996-.1784.28407-.3403.33053l-1.0814.31029c-.1729.04963-.306.18748-.3489.36143zm-4.5913 4.9159c0-.3473-.0395-.6854-.1143-1.01l-.0093-.0276c-.057-.1681-.1213-.3331-.1925-.4946-.0125-.0283-.0061-.0614.0163-.0829l1.4528-1.3904c.0294-.0277.0479-.0648.0523-.1048l.2321-2.099c.0243-.2202.1913-.3982.4104-.4376l1.1133-.1998c.1953-.0351.3517-.18128.399-.37311l.2971-1.20469c.0429-.17396.1759-.31181.3489-.36144l1.1423-.32777c.1619-.04646.2897-.17057.3402-.33054l.3831-1.21168c.0473-.14974.1626-.26868.3112-.32124l.8007-.28318c.165-.05835.2876-.19792.3236-.36843l.2896-1.3703c.0541-.25631-.1424-.49729-.4056-.49729-.1087 0-.213.0425-.2905.11832l-7.7699 7.60215-1.0886 1.0622c-.0019.0018-.0049.0021-.0071.0006-.72785-.4978-1.6094-.7891-2.55931-.7891-2.49866 0-4.52422 2.0157-4.52422 4.5022s2.02556 4.5022 4.52422 4.5022c2.49861 0 4.52421-2.0157 4.52421-4.5022z"/></g></svg>

<svg width="24" height="24" viewBox="0 0 24 24" fill="none" xmlns="http://www.w3.org/2000/svg">
<path fill-rule="evenodd" clip-rule="evenodd" d="M9.35614 16.8391C9.35614 18.0317 8.3846 18.9985 7.18614 18.9985C5.98768 18.9985 5.01614 18.0317 5.01614 16.8391C5.01614 15.6465 5.98768 14.6797 7.18614 14.6797C8.3846 14.6797 9.35614 15.6465 9.35614 16.8391ZM7.84807 16.8391C7.84807 17.2029 7.55172 17.4978 7.18614 17.4978C6.82057 17.4978 6.52421 17.2029 6.52421 16.8391C6.52421 16.4753 6.82057 16.1804 7.18614 16.1804C7.55172 16.1804 7.84807 16.4753 7.84807 16.8391Z" fill="#4360DF"/>
<path fill-rule="evenodd" clip-rule="evenodd" d="M17.1478 11.0812C17.1005 11.273 16.9442 11.4192 16.7489 11.4543L15.7802 11.6282C15.5611 11.6675 15.3941 11.8456 15.3698 12.0658L15.2137 13.4777C15.2007 13.5955 15.1461 13.7049 15.0596 13.7863L14.152 14.6412C14.0267 14.7592 13.9725 14.9326 13.998 15.1023C14.0419 15.3942 14.0646 15.693 14.0646 15.9971C14.0646 19.3124 11.3638 22 8.03229 22C4.70075 22 2 19.3124 2 15.9971C2 12.6817 4.70075 9.99414 8.03229 9.99414C8.72826 9.99414 9.39671 10.1114 10.0188 10.3272C10.209 10.3932 10.4224 10.3534 10.5661 10.2129L18.8142 2.14352C18.9083 2.05154 19.0348 2 19.1667 2H21.4971C21.8164 2 22.0547 2.29229 21.9891 2.60318L21.1655 6.50062C21.1295 6.67113 21.0069 6.8107 20.8419 6.86904L19.9524 7.18361C19.8038 7.23618 19.6886 7.35511 19.6413 7.50485L19.2408 8.77166C19.1902 8.93162 19.0624 9.05573 18.9005 9.10219L17.8191 9.41248C17.6462 9.46211 17.5131 9.59996 17.4702 9.77391L17.1478 11.0812ZM12.5565 15.9971C12.5565 15.6498 12.517 15.3117 12.4422 14.9871L12.4329 14.9595C12.3759 14.7914 12.3116 14.6264 12.2404 14.4649C12.2279 14.4366 12.2343 14.4035 12.2567 14.382L13.7095 12.9916C13.7389 12.9639 13.7574 12.9268 13.7618 12.8868L13.9939 10.7878C14.0182 10.5676 14.1852 10.3896 14.4043 10.3502L15.5176 10.1504C15.7129 10.1153 15.8693 9.96912 15.9166 9.77729L16.2137 8.5726C16.2566 8.39864 16.3896 8.26079 16.5626 8.21116L17.7049 7.88339C17.8668 7.83693 17.9946 7.71282 18.0451 7.55285L18.4282 6.34117C18.4755 6.19143 18.5908 6.07249 18.7394 6.01993L19.5401 5.73675C19.7051 5.6784 19.8277 5.53883 19.8637 5.36832L20.1533 3.99802C20.2074 3.74171 20.0109 3.50073 19.7477 3.50073C19.639 3.50073 19.5347 3.54323 19.4572 3.61905L11.6873 11.2212L10.5987 12.2834C10.5968 12.2852 10.5938 12.2855 10.5916 12.284C9.86375 11.7862 8.9822 11.4949 8.03229 11.4949C5.53363 11.4949 3.50807 13.5106 3.50807 15.9971C3.50807 18.4836 5.53363 20.4993 8.03229 20.4993C10.5309 20.4993 12.5565 18.4836 12.5565 15.9971Z" fill="#4360DF"/>
</svg>
